X:207
T:Virgin's Frolick. PDF2.207, The
B:Playford’s Dancing Master, Vol 2, 1713-28
Z:vmp.Ruairidh Greig 2015 www.village-music-project.org.uk
M:3/2
L:1/4
Q:1/2=100
K:Gm
g>^fgdB2|e>dcBA2|BGcBAG|^F3GA2|
g>^fgdB2|e>dcBA2|B/c/dc/d/edc|B3AG2:|
|:babfd2|gfgec2|Bdcfed|c3BB2|
B>cdBfd|e>fg=ea^f|g>ab^fgd|B3AG2:|
W:Each Strain is to be play'd twice.
W:The first Man turns the 2d Wo. then his own Partner, then lead thro' the 2d Cu. and cast up
W:and turn.| The 2d Cu. do the same.| Then the first Wo, goes round the 2d Man, and Sett be-
W:tween the 2d Cu. the Man at the same Time goes round the 3d Wo. and Sett between the 3d Cu..|
W:Then the first Man turns the 3d Wo. and the first Wo. turns the 2d Man, then they both go the
W:half Figure with the Couple they turn'd with, and Right and Left quite round:|

